X: 7973
T: Congress, The
R: reel
M: 4/4
K: Adorian
|:e~A3 ABcd|eaaf gedg|e~A3 ABcA|BAGA Bcdg|
e~A3 ABcd|eaaf gfed|c3d efed|1 c/B/ABG A4:|2 c/B/ABG A3f||
|:eaag ~a3g|eaag egdg|egdg egdg|eaag agdg|
eaag ~a3g|eaaf eged|c3d efed|1 c/B/ABG A3f:|2 c/B/ABG A4||

